; Toolpath generated by Diabase Printing Wizard v1.0.7-dev on 4/22/2022 4:02:09 PM
; Manufacturing method: Additive (one-sided)
;  General Settings
;    Machine selection: configured manually
;    Use own settings: True
;    Generate special support: False
;    Island combining: True
;    Skip homing: False
;    Workplace: G54
;
;  Tool Settings
;    Tool 1
;      Type: None
;      Preheat time: 20
;      Active temperature: 0
;      Standby temperature: 180.0
;      Cleaning: Always
;
;    Tool 2
;      Type: None
;      Preheat time: 20
;      Active temperature: 0
;      Standby temperature: 175
;      Cleaning: Always
;
;    Tool 3
;      Type: Nozzle
;      Preheat time: 20
;      Active temperature: 228
;      Standby temperature: 183.0
;      Cleaning: Always
;
;    Tool 4
;      Type: Nozzle
;      Preheat time: 20
;      Active temperature: 228
;      Standby temperature: 184.0
;      Cleaning: Always
;
;    Tool 5
;      Type: Nozzle
;      Preheat time: 20
;      Active temperature: 235
;      Standby temperature: 185.5
;      Cleaning: Always
;
;
; -- Additive manufacturing on the top side --
; Source File: C:\Users\AUSTIN\Desktop\Base.gcode
; G-Code generated by Simplify3D(R) Version 4.1.2
; Apr 22, 2022 at 4:02:01 PM
;   layerHeight,0.2
G54
G90
M83
M106 S0
G10 P3 R228 S228
G10 P4 R184.0 S228
G10 P5 R185.5 S235
G28
G32
; layer 1, Z = 0.190
; feature inner perimeter
G1 Z0.190 F3000
M98 P"tprime3.g" ; tool change
G1 X0.205 Y-24.205 F30000
G1 Z0.190 F1526
G1 E6.00 F3000
G1 X1.018 Y-24.184 E0.0309 F1526
G1 X1.830 Y-24.136 E0.0308
G1 X2.639 Y-24.061 E0.0308
G1 X3.447 Y-23.959 E0.0309
G1 X4.249 Y-23.830 E0.0308
G1 X5.048 Y-23.674 E0.0308
G1 X5.840 Y-23.491 E0.0308
G1 X6.626 Y-23.281 E0.0308
G1 X7.404 Y-23.046 E0.0308
G1 X8.174 Y-22.784 E0.0309
G1 X8.935 Y-22.496 E0.0309
G1 X9.501 Y-22.261 E0.0232
G1 X10.428 Y-21.845 E0.0385
G1 X11.154 Y-21.483 E0.0307
G1 X11.869 Y-21.097 E0.0308
G1 X12.571 Y-20.686 E0.0308
G1 X13.258 Y-20.252 E0.0308
G1 X13.932 Y-19.795 E0.0309
G1 X14.427 Y-19.434 E0.0232
G1 X15.231 Y-18.814 E0.0385
G1 X15.853 Y-18.293 E0.0307
G1 X16.459 Y-17.750 E0.0308
G1 X17.046 Y-17.187 E0.0308
G1 X17.613 Y-16.606 E0.0308
G1 X18.027 Y-16.152 E0.0233
G1 X18.690 Y-15.383 E0.0385
G1 X19.195 Y-14.749 E0.0307
G1 X19.679 Y-14.096 E0.0308
G1 X20.142 Y-13.427 E0.0308
G1 X20.582 Y-12.742 E0.0308
G1 X20.998 Y-12.044 E0.0308
G1 X21.391 Y-11.332 E0.0308
G1 X21.759 Y-10.607 E0.0308
G1 X22.104 Y-9.870 E0.0308
G1 X22.422 Y-9.122 E0.0308
G1 X22.716 Y-8.363 E0.0309
G1 X22.984 Y-7.596 E0.0308
G1 X23.227 Y-6.819 E0.0308
G1 X23.443 Y-6.036 E0.0308
G1 X23.632 Y-5.244 E0.0309
G1 X23.755 Y-4.644 E0.0232
G1 X23.931 Y-3.644 E0.0385
G1 X24.040 Y-2.840 E0.0307
G1 X24.122 Y-2.031 E0.0308
G1 X24.176 Y-1.219 E0.0308
G1 X24.204 Y-0.407 E0.0308
G1 X24.204 Y0.407 E0.0308
G1 X24.176 Y1.219 E0.0308
G1 X24.122 Y2.031 E0.0308
G1 X24.040 Y2.840 E0.0308
G1 X23.931 Y3.646 E0.0308
G1 X23.795 Y4.448 E0.0308
G1 X23.632 Y5.244 E0.0308
G1 X23.489 Y5.841 E0.0233
G1 X23.226 Y6.822 E0.0385
G1 X22.984 Y7.596 E0.0307
G1 X22.716 Y8.363 E0.0308
G1 X22.422 Y9.122 E0.0309
G1 X22.104 Y9.870 E0.0308
G1 X21.844 Y10.426 E0.0233
G1 X21.390 Y11.334 E0.0385
G1 X20.998 Y12.044 E0.0307
G1 X20.582 Y12.742 E0.0308
G1 X20.142 Y13.427 E0.0308
G1 X19.679 Y14.096 E0.0308
G1 X19.314 Y14.588 E0.0232
G1 X18.687 Y15.387 E0.0385
G1 X18.161 Y16.004 E0.0307
G1 X17.613 Y16.606 E0.0309
G1 X17.046 Y17.187 E0.0308
G1 X16.459 Y17.750 E0.0308
G1 X15.853 Y18.293 E0.0308
G1 X15.230 Y18.815 E0.0308
G1 X14.589 Y19.316 E0.0308
G1 X13.932 Y19.795 E0.0308
G1 X13.259 Y20.252 E0.0308
G1 X12.571 Y20.686 E0.0308
G1 X11.869 Y21.097 E0.0308
G1 X11.154 Y21.483 E0.0308
G1 X10.425 Y21.846 E0.0308
G1 X9.868 Y22.101 E0.0232
G1 X8.933 Y22.497 E0.0385
G1 X8.174 Y22.784 E0.0308
G1 X7.404 Y23.046 E0.0309
G1 X6.626 Y23.281 E0.0308
G1 X5.840 Y23.491 E0.0308
G1 X5.048 Y23.674 E0.0308
G1 X4.446 Y23.791 E0.0233
G1 X3.444 Y23.959 E0.0385
G1 X2.640 Y24.061 E0.0308
G1 X1.830 Y24.136 E0.0308
G1 X1.018 Y24.184 E0.0308
G1 X0.205 Y24.205 E0.0309
G1 X-0.608 Y24.198 E0.0308
G1 X-1.421 Y24.164 E0.0309
G1 X-2.232 Y24.102 E0.0308
G1 X-3.040 Y24.014 E0.0308
G1 X-3.647 Y23.926 E0.0232
G1 X-4.648 Y23.755 E0.0385
G1 X-5.441 Y23.586 E0.0307
G1 X-6.230 Y23.389 E0.0309
G1 X-7.013 Y23.167 E0.0308
G1 X-7.787 Y22.918 E0.0308
G1 X-8.552 Y22.644 E0.0308
G1 X-9.308 Y22.343 E0.0308
G1 X-10.054 Y22.018 E0.0308
G1 X-10.788 Y21.668 E0.0308
G1 X-11.509 Y21.293 E0.0308
G1 X-12.218 Y20.894 E0.0308
G1 X-12.913 Y20.472 E0.0308
G1 X-13.594 Y20.026 E0.0309
G1 X-14.258 Y19.559 E0.0308
G1 X-14.748 Y19.189 E0.0233
G1 X-15.541 Y18.556 E0.0385
G1 X-16.155 Y18.024 E0.0308
G1 X-16.751 Y17.471 E0.0308
G1 X-17.328 Y16.899 E0.0308
G1 X-17.886 Y16.307 E0.0308
G1 X-18.424 Y15.697 E0.0308
G1 X-18.941 Y15.069 E0.0308
G1 X-19.436 Y14.424 E0.0308
G1 X-19.910 Y13.763 E0.0308
G1 X-20.361 Y13.087 E0.0308
G1 X-20.789 Y12.395 E0.0309
G1 X-21.194 Y11.690 E0.0308
G1 X-21.575 Y10.971 E0.0309
G1 X-21.931 Y10.240 E0.0308
G1 X-22.263 Y9.497 E0.0308
G1 X-22.569 Y8.744 E0.0308
G1 X-22.850 Y7.981 E0.0308
G1 X-23.105 Y7.209 E0.0308
G1 X-23.334 Y6.428 E0.0308
G1 X-23.537 Y5.641 E0.0308
G1 X-23.713 Y4.847 E0.0308
G1 X-23.863 Y4.047 E0.0308
G1 X-23.985 Y3.243 E0.0308
G1 X-24.081 Y2.436 E0.0308
G1 X-24.149 Y1.625 E0.0308
G1 X-24.190 Y0.813 E0.0308
G1 X-24.204 Y0.000 E0.0308
G1 X-24.190 Y-0.813 E0.0308
G1 X-24.149 Y-1.625 E0.0308
G1 X-24.081 Y-2.436 E0.0308
G1 X-23.985 Y-3.243 E0.0308
G1 X-23.863 Y-4.047 E0.0308
G1 X-23.713 Y-4.847 E0.0308
G1 X-23.537 Y-5.641 E0.0308
G1 X-23.334 Y-6.428 E0.0308
G1 X-23.162 Y-7.017 E0.0233
G1 X-22.849 Y-7.983 E0.0385
G1 X-22.569 Y-8.744 E0.0307
G1 X-22.263 Y-9.497 E0.0308
G1 X-21.931 Y-10.240 E0.0308
G1 X-21.575 Y-10.971 E0.0308
G1 X-21.194 Y-11.690 E0.0309
G1 X-20.789 Y-12.395 E0.0308
G1 X-20.361 Y-13.087 E0.0309
G1 X-20.021 Y-13.597 E0.0232
G1 X-19.435 Y-14.426 E0.0385
G1 X-18.941 Y-15.069 E0.0307
G1 X-18.424 Y-15.697 E0.0308
G1 X-18.019 Y-16.157 E0.0232
G1 X-17.327 Y-16.900 E0.0385
G1 X-16.751 Y-17.471 E0.0307
G1 X-16.301 Y-17.889 E0.0233
G1 X-15.538 Y-18.558 E0.0385
G1 X-14.908 Y-19.069 E0.0308
G1 X-14.259 Y-19.559 E0.0308
G1 X-13.594 Y-20.027 E0.0308
G1 X-12.913 Y-20.472 E0.0309
G1 X-12.389 Y-20.790 E0.0232
G1 X-11.507 Y-21.294 E0.0385
G1 X-10.788 Y-21.668 E0.0307
G1 X-10.234 Y-21.932 E0.0233
G1 X-9.306 Y-22.344 E0.0385
G1 X-8.552 Y-22.644 E0.0308
G1 X-7.787 Y-22.918 E0.0308
G1 X-7.013 Y-23.167 E0.0308
G1 X-6.230 Y-23.389 E0.0308
G1 X-5.635 Y-23.537 E0.0233
G1 X-4.643 Y-23.755 E0.0385
G1 X-3.845 Y-23.898 E0.0307
G1 X-3.040 Y-24.014 E0.0308
G1 X-2.232 Y-24.102 E0.0308
G1 X-1.421 Y-24.164 E0.0308
G1 X-0.608 Y-24.198 E0.0309
G1 X-0.295 Y-24.200 E0.0118
G1 X0.205 Y-24.205 F1526
; feature outer perimeter
G1 X0.209 Y-24.685 F30000
G1 X1.038 Y-24.664 E0.0314 F1403
G1 X1.866 Y-24.615 E0.0315
G1 X2.692 Y-24.538 E0.0314
G1 X3.515 Y-24.434 E0.0314
G1 X4.334 Y-24.302 E0.0314
G1 X5.148 Y-24.143 E0.0314
G1 X5.956 Y-23.957 E0.0314
G1 X6.757 Y-23.743 E0.0315
G1 X7.550 Y-23.503 E0.0314
G1 X8.337 Y-23.236 E0.0315
G1 X9.112 Y-22.943 E0.0314
G1 X9.692 Y-22.701 E0.0238
G1 X10.633 Y-22.279 E0.0391
G1 X11.375 Y-21.909 E0.0314
G1 X12.104 Y-21.515 E0.0314
G1 X12.820 Y-21.096 E0.0315
G1 X13.522 Y-20.654 E0.0314
G1 X14.208 Y-20.188 E0.0315
G1 X14.715 Y-19.818 E0.0238
G1 X15.532 Y-19.188 E0.0391
G1 X16.168 Y-18.656 E0.0314
G1 X16.785 Y-18.102 E0.0314
G1 X17.384 Y-17.528 E0.0314
G1 X17.962 Y-16.935 E0.0314
G1 X18.386 Y-16.471 E0.0238
G1 X19.060 Y-15.690 E0.0391
G1 X19.576 Y-15.041 E0.0314
G1 X20.070 Y-14.375 E0.0314
G1 X20.541 Y-13.693 E0.0314
G1 X20.990 Y-12.995 E0.0314
G1 X21.415 Y-12.283 E0.0315
G1 X21.815 Y-11.557 E0.0314
G1 X22.191 Y-10.817 E0.0314
G1 X22.542 Y-10.066 E0.0315
G1 X22.867 Y-9.303 E0.0315
G1 X23.167 Y-8.530 E0.0314
G1 X23.440 Y-7.746 E0.0315
G1 X23.687 Y-6.955 E0.0314
G1 X23.908 Y-6.155 E0.0314
G1 X24.101 Y-5.349 E0.0314
G1 X24.227 Y-4.733 E0.0238
G1 X24.406 Y-3.718 E0.0391
G1 X24.517 Y-2.896 E0.0314
G1 X24.600 Y-2.071 E0.0314
G1 X24.656 Y-1.243 E0.0315
G1 X24.684 Y-0.415 E0.0314
G1 X24.684 Y0.415 E0.0315
G1 X24.656 Y1.243 E0.0314
G1 X24.600 Y2.071 E0.0315
G1 X24.517 Y2.896 E0.0314
G1 X24.406 Y3.718 E0.0315
G1 X24.267 Y4.536 E0.0314
G1 X24.101 Y5.349 E0.0315
G1 X23.955 Y5.959 E0.0238
G1 X23.687 Y6.955 E0.0391
G1 X23.440 Y7.746 E0.0314
G1 X23.167 Y8.530 E0.0315
G1 X22.867 Y9.303 E0.0314
G1 X22.542 Y10.066 E0.0315
G1 X22.276 Y10.635 E0.0238
G1 X21.815 Y11.557 E0.0391
G1 X21.415 Y12.283 E0.0314
G1 X20.990 Y12.995 E0.0315
G1 X20.541 Y13.693 E0.0314
G1 X20.070 Y14.375 E0.0314
G1 X19.696 Y14.879 E0.0238
G1 X19.059 Y15.691 E0.0391
G1 X18.521 Y16.322 E0.0314
G1 X17.962 Y16.935 E0.0315
G1 X17.384 Y17.528 E0.0314
G1 X16.785 Y18.102 E0.0314
G1 X16.168 Y18.656 E0.0314
G1 X15.531 Y19.189 E0.0315
G1 X14.878 Y19.699 E0.0314
G1 X14.208 Y20.188 E0.0315
G1 X13.522 Y20.654 E0.0315
G1 X12.820 Y21.096 E0.0314
G1 X12.104 Y21.515 E0.0315
G1 X11.375 Y21.909 E0.0314
G1 X10.632 Y22.279 E0.0315
G1 X10.061 Y22.540 E0.0238
G1 X9.111 Y22.943 E0.0391
G1 X8.337 Y23.236 E0.0314
G1 X7.550 Y23.503 E0.0315
G1 X6.757 Y23.743 E0.0314
G1 X5.956 Y23.957 E0.0315
G1 X5.148 Y24.143 E0.0314
G1 X4.532 Y24.264 E0.0238
G1 X3.514 Y24.434 E0.0391
G1 X2.692 Y24.538 E0.0314
G1 X1.866 Y24.615 E0.0314
G1 X1.038 Y24.664 E0.0315
G1 X0.209 Y24.685 E0.0314
G1 X-0.620 Y24.678 E0.0314
G1 X-1.449 Y24.643 E0.0315
G1 X-2.276 Y24.580 E0.0314
G1 X-3.100 Y24.490 E0.0314
G1 X-3.722 Y24.400 E0.0238
G1 X-4.739 Y24.226 E0.0391
G1 X-5.549 Y24.053 E0.0314
G1 X-6.354 Y23.853 E0.0314
G1 X-7.152 Y23.626 E0.0315
G1 X-7.941 Y23.373 E0.0314
G1 X-8.722 Y23.093 E0.0314
G1 X-9.493 Y22.786 E0.0314
G1 X-10.253 Y22.455 E0.0315
G1 X-11.002 Y22.097 E0.0314
G1 X-11.737 Y21.715 E0.0314
G1 X-12.461 Y21.309 E0.0315
G1 X-13.169 Y20.878 E0.0314
G1 X-13.863 Y20.424 E0.0314
G1 X-14.542 Y19.946 E0.0315
G1 X-15.042 Y19.568 E0.0238
G1 X-15.849 Y18.924 E0.0391
G1 X-16.475 Y18.382 E0.0314
G1 X-17.083 Y17.818 E0.0315
G1 X-17.672 Y17.234 E0.0314
G1 X-18.241 Y16.631 E0.0314
G1 X-18.789 Y16.008 E0.0315
G1 X-19.317 Y15.368 E0.0314
G1 X-19.822 Y14.710 E0.0314
G1 X-20.305 Y14.036 E0.0315
G1 X-20.765 Y13.346 E0.0314
G1 X-21.202 Y12.641 E0.0314
G1 X-21.614 Y11.922 E0.0314
G1 X-22.003 Y11.188 E0.0315
G1 X-22.366 Y10.443 E0.0314
G1 X-22.704 Y9.686 E0.0314
G1 X-23.017 Y8.917 E0.0315
G1 X-23.303 Y8.139 E0.0314
G1 X-23.564 Y7.352 E0.0314
G1 X-23.797 Y6.556 E0.0315
G1 X-24.004 Y5.753 E0.0314
G1 X-24.184 Y4.943 E0.0315
G1 X-24.336 Y4.128 E0.0314
G1 X-24.461 Y3.308 E0.0314
G1 X-24.558 Y2.484 E0.0314
G1 X-24.628 Y1.658 E0.0314
G1 X-24.670 Y0.829 E0.0315
G1 X-24.684 Y0.000 E0.0314
G1 X-24.670 Y-0.829 E0.0314
G1 X-24.628 Y-1.658 E0.0315
G1 X-24.558 Y-2.484 E0.0314
G1 X-24.461 Y-3.308 E0.0314
G1 X-24.336 Y-4.128 E0.0314
G1 X-24.184 Y-4.943 E0.0314
G1 X-24.004 Y-5.753 E0.0315
G1 X-23.797 Y-6.556 E0.0314
G1 X-23.620 Y-7.158 E0.0238
G1 X-23.303 Y-8.140 E0.0391
G1 X-23.017 Y-8.917 E0.0314
G1 X-22.704 Y-9.686 E0.0315
G1 X-22.366 Y-10.443 E0.0314
G1 X-22.003 Y-11.188 E0.0314
G1 X-21.614 Y-11.922 E0.0315
G1 X-21.202 Y-12.641 E0.0314
G1 X-20.765 Y-13.346 E0.0314
G1 X-20.417 Y-13.868 E0.0238
G1 X-19.821 Y-14.711 E0.0391
G1 X-19.317 Y-15.368 E0.0314
G1 X-18.789 Y-16.008 E0.0314
G1 X-18.374 Y-16.479 E0.0238
G1 X-17.671 Y-17.235 E0.0391
G1 X-17.083 Y-17.818 E0.0314
G1 X-16.623 Y-18.245 E0.0238
G1 X-15.848 Y-18.925 E0.0391
G1 X-15.203 Y-19.447 E0.0314
G1 X-14.542 Y-19.947 E0.0314
G1 X-13.863 Y-20.424 E0.0315
G1 X-13.169 Y-20.878 E0.0314
G1 X-12.633 Y-21.204 E0.0238
G1 X-11.737 Y-21.716 E0.0391
G1 X-11.002 Y-22.097 E0.0314
G1 X-10.435 Y-22.368 E0.0238
G1 X-9.492 Y-22.787 E0.0391
G1 X-8.722 Y-23.093 E0.0314
G1 X-7.941 Y-23.373 E0.0315
G1 X-7.152 Y-23.626 E0.0314
G1 X-6.354 Y-23.853 E0.0315
G1 X-5.745 Y-24.005 E0.0238
G1 X-4.737 Y-24.226 E0.0391
G1 X-3.921 Y-24.372 E0.0314
G1 X-3.100 Y-24.490 E0.0314
G1 X-2.276 Y-24.580 E0.0314
G1 X-1.449 Y-24.643 E0.0314
G1 X-0.620 Y-24.678 E0.0315
G1 X-0.291 Y-24.680 E0.0125
G1 X0.209 Y-24.685 F1403
G1 E-4.7000 F3600
; feature solid layer
G1 X13.568 Y-19.694 F30000
G1 E4.7000 F3600
G1 X19.694 Y-13.569 E0.3284 F1485
G1 X19.902 Y-13.267 E0.0139
G1 X20.337 Y-12.591 E0.0305
G1 X20.748 Y-11.901 E0.0305
G1 X20.829 Y-11.755 E0.0063
G1 X11.752 Y-20.831 E0.4867
G1 X11.728 Y-20.846 E0.0011
G1 X11.021 Y-21.228 E0.0305
G1 X10.336 Y-21.569 E0.0290
G1 X21.567 Y-10.337 E0.6023
G1 X21.840 Y-9.753 E0.0245
G1 X22.114 Y-9.112 E0.0264
G1 X9.117 Y-22.109 E0.6969
G1 X8.829 Y-22.229 E0.0118
G1 X8.077 Y-22.513 E0.0305
G1 X8.012 Y-22.535 E0.0026
G1 X22.534 Y-8.013 E0.7787
G1 X22.711 Y-7.505 E0.0204
G1 X22.869 Y-6.999 E0.0201
G1 X7.001 Y-22.867 E0.8508
G1 X6.547 Y-23.004 E0.0180
G1 X6.054 Y-23.136 E0.0194
G1 X23.140 Y-6.049 E0.9162
G1 X23.164 Y-5.964 E0.0034
G1 X23.351 Y-5.182 E0.0305
G1 X23.357 Y-5.154 E0.0011
G1 X5.158 Y-23.353 E0.9759
G1 X4.988 Y-23.392 E0.0066
G1 X4.307 Y-23.525 E0.0263
G1 X23.521 Y-4.310 E1.0303
G1 X23.647 Y-3.599 E0.0274
G1 X23.661 Y-3.492 E0.0041
G1 X3.493 Y-23.660 E1.0815
G1 X3.406 Y-23.674 E0.0034
G1 X2.712 Y-23.762 E0.0265
G1 X23.764 Y-2.710 E1.1288
G1 X23.835 Y-2.007 E0.0268
G1 X23.838 Y-1.957 E0.0019
G1 X1.960 Y-23.835 E1.1731
G1 X1.808 Y-23.849 E0.0058
G1 X1.234 Y-23.883 E0.0218
G1 X23.887 Y-1.229 E1.2147
G1 X23.889 Y-1.205 E0.0009
G1 X23.912 Y-0.526 E0.0257
G1 X0.529 Y-23.908 E1.2538
G1 X0.203 Y-23.917 E0.0124
G1 X-0.155 Y-23.914 E0.0135
G1 X23.916 Y0.157 E1.2907
G1 X23.916 Y0.402 E0.0093
G1 X23.902 Y0.822 E0.0159
G1 X-0.821 Y-23.901 E1.3257
G1 X-1.404 Y-23.876 E0.0221
G1 X-1.470 Y-23.871 E0.0025
G1 X23.871 Y1.470 E1.3588
G1 X23.835 Y2.007 E0.0204
G1 X23.825 Y2.103 E0.0036
G1 X-2.101 Y-23.823 E1.3902
G1 X-2.205 Y-23.815 E0.0040
G1 X-2.716 Y-23.759 E0.0195
G1 X23.763 Y2.719 E1.4198
G1 X23.754 Y2.806 E0.0033
G1 X23.684 Y3.320 E0.0197
G1 X-3.318 Y-23.683 E1.4479
G1 X-3.799 Y-23.613 E0.0184
G1 X-3.908 Y-23.594 E0.0042
G1 X23.594 Y3.908 E1.4747
G1 X23.512 Y4.395 E0.0187
G1 X23.493 Y4.486 E0.0035
G1 X-4.484 Y-23.491 E1.5002
G1 X-4.587 Y-23.473 E0.0040
G1 X-5.044 Y-23.372 E0.0177
G1 X23.378 Y5.050 E1.5241
G1 X23.351 Y5.182 E0.0051
G1 X23.251 Y5.601 E0.0163
G1 X-5.600 Y-23.249 E1.5470
G1 X-6.144 Y-23.114 E0.0212
G1 X23.111 Y6.140 E1.5687
G1 X22.967 Y6.675 E0.0210
G1 X-6.672 Y-22.964 E1.5893
G1 X-6.929 Y-22.891 E0.0101
G1 X-7.193 Y-22.806 E0.0105
G1 X22.808 Y7.195 E1.6087
G1 X22.711 Y7.505 E0.0123
G1 X22.641 Y7.707 E0.0081
G1 X-7.707 Y-22.641 E1.6273
G1 X-8.206 Y-22.462 E0.0201
G1 X22.465 Y8.210 E1.6447
G1 X22.446 Y8.264 E0.0022
G1 X22.277 Y8.700 E0.0178
G1 X-8.699 Y-22.275 E1.6610
G1 X-9.185 Y-22.082 E0.0198
G1 X22.083 Y9.185 E1.6766
G1 X21.880 Y9.661 E0.0196
G1 X-9.655 Y-21.874 E1.6910
G1 X-10.113 Y-21.670 E0.0190
G1 X-10.125 Y-21.665 E0.0005
G1 X21.666 Y10.126 E1.7047
G1 X21.585 Y10.300 E0.0073
G1 X21.444 Y10.582 E0.0120
G1 X-10.584 Y-21.446 E1.7174
G1 X-10.659 Y-21.410 E0.0031
G1 X-11.033 Y-21.216 E0.0160
G1 X21.217 Y11.035 E1.7293
G1 X21.135 Y11.200 E0.0070
G1 X20.981 Y11.478 E0.0120
G1 X-11.477 Y-20.980 E1.7405
G1 X-11.909 Y-20.733 E0.0189
G1 X20.740 Y11.915 E1.7507
G1 X20.486 Y12.340 E0.0188
G1 X-12.338 Y-20.484 E1.7601
G1 X-12.761 Y-20.228 E0.0187
G1 X20.228 Y12.761 E1.7689
G1 X19.962 Y13.174 E0.0186
G1 X-13.171 Y-19.959 E1.7767
G1 X-13.432 Y-19.788 E0.0118
G1 X-13.577 Y-19.686 E0.0067
G1 X19.687 Y13.578 E1.7837
G1 X19.445 Y13.928 E0.0161
G1 X19.408 Y13.978 E0.0024
G1 X-13.975 Y-19.406 E1.7901
G1 X-14.089 Y-19.326 E0.0053
G1 X-14.365 Y-19.117 E0.0131
G1 X19.119 Y14.367 E1.7955
G1 X19.085 Y14.414 E0.0022
G1 X18.822 Y14.749 E0.0162
G1 X-14.751 Y-18.824 E1.8003
G1 X-15.127 Y-18.521 E0.0183
G1 X18.523 Y15.129 E1.8044
G1 X18.464 Y15.205 E0.0036
G1 X18.214 Y15.498 E0.0146
G1 X-15.496 Y-18.212 E1.8076
G1 X-15.858 Y-17.894 E0.0182
G1 X17.900 Y15.863 E1.8102
G1 X17.576 Y16.218 E0.0182
G1 X-16.216 Y-17.574 E1.8120
G1 X-16.552 Y-17.263 E0.0173
G1 X-16.568 Y-17.247 E0.0009
G1 X17.247 Y16.568 E1.8132
G1 X16.912 Y16.912 E0.0182
G1 X-16.909 Y-16.909 E1.8136
G1 X-17.120 Y-16.700 E0.0113
G1 X-17.245 Y-16.566 E0.0069
G1 X16.568 Y17.247 E1.8131
G1 X16.263 Y17.539 E0.0160
G1 X16.220 Y17.578 E0.0022
G1 X-17.572 Y-16.214 E1.8120
