; Toolpath generated by Diabase Printing Wizard v1.0.7-dev on 5/9/2022 10:53:46 AM
; Manufacturing method: Additive (one-sided)
;  General Settings
;    Machine selection: configured manually
;    Use own settings: True
;    Generate special support: False
;    Island combining: True
;    Skip homing: False
;    Workplace: G54
;
;  Tool Settings
;    Tool 1
;      Type: Nozzle
;      Preheat time: 20
;      Active temperature: 235
;      Standby temperature: 180.0
;      Cleaning: Always
;
;    Tool 2
;      Type: None
;      Preheat time: 20
;      Active temperature: 0
;      Standby temperature: 175
;      Cleaning: Always
;
;    Tool 3
;      Type: Nozzle
;      Preheat time: 20
;      Active temperature: 235
;      Standby temperature: 183.0
;      Cleaning: Always
;
;    Tool 4
;      Type: Nozzle
;      Preheat time: 20
;      Active temperature: 235
;      Standby temperature: 184.0
;      Cleaning: Always
;
;    Tool 5
;      Type: Nozzle
;      Preheat time: 20
;      Active temperature: 235
;      Standby temperature: 185.5
;      Cleaning: Always
;
;
; -- Additive manufacturing on the top side --
; Source File: C:\Users\AUSTIN\Desktop\4-material-print.gcode
; G-Code generated by Simplify3D(R) Version 4.1.2
; May 9, 2022 at 10:53:15 AM
;   layerHeight,0.2
G54
G90
M83
M106 S0
G10 P1 R180.0 S235
G10 P3 R235 S235
G10 P4 R184.0 S235
G10 P5 R185.5 S235
G28
G32
; layer 1, Z = 0.190
; feature inner perimeter
G1 Z0.190 F3000
M98 P"tprime3.g" ; tool change
G1 X0.206 Y-24.265 F30000
G1 Z0.190 F1526
G1 E15.00 F3000
G1 X1.021 Y-24.244 E0.0298 F1526
G1 X1.835 Y-24.196 E0.0298
G1 X2.646 Y-24.121 E0.0297
G1 X3.455 Y-24.018 E0.0298
G1 X4.260 Y-23.889 E0.0298
G1 X5.060 Y-23.732 E0.0297
G1 X5.854 Y-23.549 E0.0298
G1 X6.643 Y-23.339 E0.0298
G1 X7.422 Y-23.103 E0.0297
G1 X8.194 Y-22.841 E0.0298
G1 X8.957 Y-22.552 E0.0298
G1 X9.525 Y-22.316 E0.0224
G1 X10.454 Y-21.899 E0.0372
G1 X11.181 Y-21.537 E0.0297
G1 X11.899 Y-21.149 E0.0298
G1 X12.602 Y-20.738 E0.0297
G1 X13.292 Y-20.302 E0.0298
G1 X13.966 Y-19.845 E0.0297
G1 X14.463 Y-19.482 E0.0224
G1 X15.269 Y-18.861 E0.0371
G1 X15.892 Y-18.339 E0.0297
G1 X16.499 Y-17.794 E0.0298
G1 X17.088 Y-17.230 E0.0298
G1 X17.657 Y-16.647 E0.0297
G1 X18.071 Y-16.192 E0.0224
G1 X18.736 Y-15.422 E0.0371
G1 X19.242 Y-14.785 E0.0297
G1 X19.728 Y-14.131 E0.0298
G1 X20.192 Y-13.460 E0.0298
G1 X20.632 Y-12.774 E0.0297
G1 X20.948 Y-12.245 E0.0225
G1 X21.445 Y-11.358 E0.0371
G1 X21.813 Y-10.633 E0.0297
G1 X22.073 Y-10.076 E0.0224
G1 X22.479 Y-9.142 E0.0371
G1 X22.772 Y-8.385 E0.0297
G1 X23.042 Y-7.614 E0.0298
G1 X23.284 Y-6.836 E0.0297
G1 X23.501 Y-6.050 E0.0297
G1 X23.691 Y-5.257 E0.0298
G1 X23.814 Y-4.655 E0.0224
G1 X23.991 Y-3.653 E0.0372
G1 X24.100 Y-2.847 E0.0297
G1 X24.182 Y-2.036 E0.0298
G1 X24.236 Y-1.222 E0.0298
G1 X24.264 Y-0.408 E0.0297
G1 X24.264 Y0.408 E0.0298
G1 X24.243 Y1.022 E0.0224
G1 X24.181 Y2.038 E0.0371
G1 X24.100 Y2.847 E0.0297
G1 X24.017 Y3.456 E0.0224
G1 X23.854 Y4.461 E0.0371
G1 X23.691 Y5.257 E0.0297
G1 X23.547 Y5.856 E0.0225
G1 X23.284 Y6.838 E0.0371
G1 X23.041 Y7.615 E0.0297
G1 X22.839 Y8.195 E0.0224
G1 X22.477 Y9.146 E0.0371
G1 X22.158 Y9.894 E0.0297
G1 X21.813 Y10.633 E0.0298
G1 X21.444 Y11.360 E0.0298
G1 X21.050 Y12.074 E0.0298
G1 X20.632 Y12.774 E0.0298
G1 X20.192 Y13.460 E0.0297
G1 X19.728 Y14.131 E0.0298
G1 X19.362 Y14.625 E0.0225
G1 X18.734 Y15.425 E0.0371
G1 X18.206 Y16.044 E0.0297
G1 X17.657 Y16.647 E0.0298
G1 X17.088 Y17.230 E0.0297
G1 X16.499 Y17.794 E0.0298
G1 X15.892 Y18.339 E0.0298
G1 X15.267 Y18.862 E0.0297
G1 X14.783 Y19.241 E0.0225
G1 X13.964 Y19.846 E0.0371
G1 X13.292 Y20.302 E0.0297
G1 X12.602 Y20.738 E0.0298
G1 X11.899 Y21.149 E0.0297
G1 X11.181 Y21.537 E0.0298
G1 X10.451 Y21.900 E0.0297
G1 X9.710 Y22.239 E0.0298
G1 X8.957 Y22.552 E0.0297
G1 X8.194 Y22.841 E0.0298
G1 X7.422 Y23.103 E0.0298
G1 X6.643 Y23.339 E0.0297
G1 X5.854 Y23.549 E0.0298
G1 X5.060 Y23.732 E0.0298
G1 X4.260 Y23.889 E0.0297
G1 X3.455 Y24.018 E0.0298
G1 X2.646 Y24.121 E0.0298
G1 X1.835 Y24.196 E0.0297
G1 X1.021 Y24.244 E0.0298
G1 X0.206 Y24.265 E0.0298
G1 X-0.610 Y24.258 E0.0298
G1 X-1.424 Y24.223 E0.0297
G1 X-2.237 Y24.162 E0.0298
G1 X-3.047 Y24.073 E0.0298
G1 X-3.855 Y23.957 E0.0298
G1 X-4.657 Y23.814 E0.0297
G1 X-5.454 Y23.644 E0.0298
G1 X-6.246 Y23.447 E0.0298
G1 X-7.030 Y23.224 E0.0297
G1 X-7.806 Y22.975 E0.0298
G1 X-8.573 Y22.700 E0.0297
G1 X-9.331 Y22.399 E0.0298
G1 X-10.078 Y22.073 E0.0297
G1 X-10.633 Y21.808 E0.0224
G1 X-11.540 Y21.345 E0.0372
G1 X-12.248 Y20.946 E0.0297
G1 X-12.945 Y20.523 E0.0298
G1 X-13.627 Y20.076 E0.0298
G1 X-14.294 Y19.607 E0.0298
G1 X-14.945 Y19.116 E0.0298
G1 X-15.578 Y18.603 E0.0297
G1 X-16.195 Y18.069 E0.0298
G1 X-16.792 Y17.515 E0.0297
G1 X-17.371 Y16.941 E0.0298
G1 X-17.931 Y16.347 E0.0298
G1 X-18.470 Y15.736 E0.0297
G1 X-18.988 Y15.106 E0.0298
G1 X-19.484 Y14.460 E0.0297
G1 X-19.959 Y13.797 E0.0298
G1 X-20.412 Y13.119 E0.0298
G1 X-20.841 Y12.426 E0.0297
G1 X-21.247 Y11.718 E0.0298
G1 X-21.628 Y10.998 E0.0297
G1 X-21.985 Y10.265 E0.0298
G1 X-22.318 Y9.521 E0.0297
G1 X-22.550 Y8.951 E0.0225
G1 X-22.907 Y7.999 E0.0371
G1 X-23.163 Y7.226 E0.0297
G1 X-23.392 Y6.444 E0.0298
G1 X-23.596 Y5.655 E0.0297
G1 X-23.772 Y4.859 E0.0298
G1 X-23.922 Y4.057 E0.0297
G1 X-24.045 Y3.251 E0.0298
G1 X-24.140 Y2.442 E0.0297
G1 X-24.209 Y1.629 E0.0298
G1 X-24.250 Y0.815 E0.0297
G1 X-24.264 Y0.000 E0.0298
G1 X-24.250 Y-0.815 E0.0298
G1 X-24.209 Y-1.629 E0.0297
G1 X-24.140 Y-2.442 E0.0298
G1 X-24.045 Y-3.251 E0.0297
G1 X-23.922 Y-4.057 E0.0298
G1 X-23.772 Y-4.859 E0.0297
G1 X-23.596 Y-5.655 E0.0298
G1 X-23.392 Y-6.444 E0.0297
G1 X-23.219 Y-7.034 E0.0224
G1 X-22.906 Y-8.003 E0.0372
G1 X-22.625 Y-8.765 E0.0297
G1 X-22.318 Y-9.521 E0.0298
G1 X-22.067 Y-10.082 E0.0224
G1 X-21.627 Y-11.000 E0.0372
G1 X-21.247 Y-11.718 E0.0297
G1 X-20.841 Y-12.426 E0.0298
G1 X-20.412 Y-13.119 E0.0297
G1 X-20.070 Y-13.631 E0.0225
G1 X-19.483 Y-14.462 E0.0371
G1 X-18.988 Y-15.106 E0.0297
G1 X-18.470 Y-15.736 E0.0298
G1 X-18.063 Y-16.197 E0.0224
G1 X-17.370 Y-16.942 E0.0371
G1 X-16.792 Y-17.515 E0.0297
G1 X-16.195 Y-18.069 E0.0297
G1 X-15.578 Y-18.603 E0.0298
G1 X-14.945 Y-19.116 E0.0298
G1 X-14.454 Y-19.487 E0.0225
G1 X-13.625 Y-20.078 E0.0371
G1 X-12.945 Y-20.523 E0.0297
G1 X-12.419 Y-20.842 E0.0225
G1 X-11.536 Y-21.347 E0.0371
G1 X-10.814 Y-21.721 E0.0297
G1 X-10.078 Y-22.073 E0.0298
G1 X-9.331 Y-22.399 E0.0297
G1 X-8.573 Y-22.700 E0.0298
G1 X-7.806 Y-22.975 E0.0297
G1 X-7.030 Y-23.224 E0.0298
G1 X-6.246 Y-23.447 E0.0297
G1 X-5.649 Y-23.596 E0.0225
G1 X-4.655 Y-23.814 E0.0371
G1 X-3.855 Y-23.957 E0.0297
G1 X-3.047 Y-24.073 E0.0298
G1 X-2.237 Y-24.162 E0.0298
G1 X-1.424 Y-24.223 E0.0298
G1 X-0.610 Y-24.258 E0.0297
G1 X0.206 Y-24.265 E0.0298
; feature outer perimeter
G1 X0.209 Y-24.705 F30000
G1 X1.039 Y-24.684 E0.0303 F1403
G1 X1.868 Y-24.635 E0.0303
G1 X2.694 Y-24.558 E0.0303
G1 X3.518 Y-24.454 E0.0303
G1 X4.337 Y-24.322 E0.0303
G1 X5.152 Y-24.163 E0.0303
G1 X5.961 Y-23.976 E0.0303
G1 X6.763 Y-23.762 E0.0303
G1 X7.556 Y-23.522 E0.0303
G1 X8.343 Y-23.255 E0.0303
G1 X9.119 Y-22.961 E0.0303
G1 X9.700 Y-22.720 E0.0229
G1 X10.641 Y-22.297 E0.0377
G1 X11.384 Y-21.927 E0.0303
G1 X12.114 Y-21.533 E0.0303
G1 X12.831 Y-21.114 E0.0303
G1 X13.533 Y-20.671 E0.0303
G1 X14.219 Y-20.204 E0.0303
G1 X14.727 Y-19.834 E0.0229
G1 X15.545 Y-19.204 E0.0377
G1 X16.180 Y-18.671 E0.0303
G1 X16.798 Y-18.117 E0.0303
G1 X17.398 Y-17.543 E0.0303
G1 X17.977 Y-16.948 E0.0303
G1 X18.400 Y-16.484 E0.0229
G1 X19.075 Y-15.703 E0.0377
G1 X19.591 Y-15.053 E0.0303
G1 X20.086 Y-14.387 E0.0303
G1 X20.558 Y-13.704 E0.0303
G1 X21.007 Y-13.006 E0.0303
G1 X21.329 Y-12.466 E0.0229
G1 X21.833 Y-11.565 E0.0377
G1 X22.209 Y-10.826 E0.0303
G1 X22.475 Y-10.257 E0.0229
G1 X22.886 Y-9.310 E0.0377
G1 X23.186 Y-8.537 E0.0303
G1 X23.459 Y-7.753 E0.0303
G1 X23.706 Y-6.960 E0.0303
G1 X23.927 Y-6.160 E0.0303
G1 X24.120 Y-5.353 E0.0303
G1 X24.246 Y-4.737 E0.0229
G1 X24.425 Y-3.721 E0.0377
G1 X24.537 Y-2.898 E0.0303
G1 X24.620 Y-2.073 E0.0303
G1 X24.676 Y-1.245 E0.0303
G1 X24.704 Y-0.415 E0.0303
G1 X24.704 Y0.415 E0.0303
G1 X24.683 Y1.043 E0.0229
G1 X24.620 Y2.074 E0.0377
G1 X24.537 Y2.898 E0.0303
G1 X24.452 Y3.521 E0.0229
G1 X24.286 Y4.540 E0.0377
G1 X24.120 Y5.353 E0.0303
G1 X23.974 Y5.964 E0.0229
G1 X23.706 Y6.961 E0.0377
G1 X23.459 Y7.753 E0.0303
G1 X23.252 Y8.346 E0.0229
G1 X22.885 Y9.311 E0.0377
G1 X22.560 Y10.074 E0.0303
G1 X22.209 Y10.826 E0.0303
G1 X21.833 Y11.566 E0.0303
G1 X21.432 Y12.292 E0.0303
G1 X21.007 Y13.006 E0.0303
G1 X20.558 Y13.704 E0.0303
G1 X20.086 Y14.387 E0.0303
G1 X19.712 Y14.891 E0.0229
G1 X19.074 Y15.704 E0.0377
G1 X18.536 Y16.335 E0.0303
G1 X17.977 Y16.948 E0.0303
G1 X17.398 Y17.543 E0.0303
G1 X16.798 Y18.117 E0.0303
G1 X16.180 Y18.671 E0.0303
G1 X15.544 Y19.204 E0.0303
G1 X15.049 Y19.591 E0.0229
G1 X14.219 Y20.205 E0.0377
G1 X13.533 Y20.671 E0.0303
G1 X12.831 Y21.114 E0.0303
G1 X12.114 Y21.533 E0.0303
G1 X11.384 Y21.927 E0.0303
G1 X10.641 Y22.297 E0.0303
G1 X9.886 Y22.642 E0.0303
G1 X9.119 Y22.961 E0.0303
G1 X8.343 Y23.255 E0.0303
G1 X7.556 Y23.522 E0.0303
G1 X6.763 Y23.762 E0.0303
G1 X5.961 Y23.976 E0.0303
G1 X5.152 Y24.163 E0.0303
G1 X4.337 Y24.322 E0.0303
G1 X3.518 Y24.454 E0.0303
G1 X2.694 Y24.558 E0.0303
G1 X1.868 Y24.635 E0.0303
G1 X1.039 Y24.684 E0.0303
G1 X0.209 Y24.705 E0.0303
G1 X-0.621 Y24.698 E0.0303
G1 X-1.450 Y24.663 E0.0303
G1 X-2.278 Y24.600 E0.0303
G1 X-3.103 Y24.510 E0.0303
G1 X-3.924 Y24.392 E0.0303
G1 X-4.742 Y24.246 E0.0303
G1 X-5.554 Y24.073 E0.0303
G1 X-6.359 Y23.873 E0.0303
G1 X-7.157 Y23.645 E0.0303
G1 X-7.948 Y23.392 E0.0303
G1 X-8.729 Y23.111 E0.0303
G1 X-9.500 Y22.805 E0.0303
G1 X-10.262 Y22.473 E0.0303
G1 X-10.828 Y22.202 E0.0229
G1 X-11.748 Y21.733 E0.0377
G1 X-12.471 Y21.326 E0.0303
G1 X-13.180 Y20.895 E0.0303
G1 X-13.874 Y20.440 E0.0303
G1 X-14.553 Y19.963 E0.0303
G1 X-15.216 Y19.462 E0.0303
G1 X-15.861 Y18.940 E0.0303
G1 X-16.488 Y18.397 E0.0303
G1 X-17.097 Y17.832 E0.0303
G1 X-17.686 Y17.248 E0.0303
G1 X-18.256 Y16.644 E0.0303
G1 X-18.805 Y16.021 E0.0303
G1 X-19.332 Y15.380 E0.0303
G1 X-19.838 Y14.722 E0.0303
G1 X-20.321 Y14.047 E0.0303
G1 X-20.782 Y13.357 E0.0303
G1 X-21.219 Y12.651 E0.0303
G1 X-21.632 Y11.931 E0.0303
G1 X-22.020 Y11.198 E0.0303
G1 X-22.384 Y10.452 E0.0303
G1 X-22.723 Y9.693 E0.0303
G1 X-22.959 Y9.111 E0.0229
G1 X-23.322 Y8.145 E0.0377
G1 X-23.583 Y7.357 E0.0303
G1 X-23.817 Y6.561 E0.0303
G1 X-24.023 Y5.757 E0.0303
G1 X-24.203 Y4.947 E0.0303
G1 X-24.356 Y4.131 E0.0303
G1 X-24.481 Y3.310 E0.0303
G1 X-24.578 Y2.486 E0.0303
G1 X-24.648 Y1.659 E0.0303
G1 X-24.690 Y0.830 E0.0303
G1 X-24.704 Y0.000 E0.0303
G1 X-24.690 Y-0.830 E0.0303
G1 X-24.648 Y-1.659 E0.0303
G1 X-24.578 Y-2.486 E0.0303
G1 X-24.481 Y-3.310 E0.0303
G1 X-24.356 Y-4.131 E0.0303
G1 X-24.203 Y-4.947 E0.0303
G1 X-24.023 Y-5.757 E0.0303
G1 X-23.817 Y-6.561 E0.0303
G1 X-23.639 Y-7.164 E0.0229
G1 X-23.322 Y-8.146 E0.0377
G1 X-23.035 Y-8.925 E0.0303
G1 X-22.723 Y-9.694 E0.0303
G1 X-22.466 Y-10.267 E0.0229
G1 X-22.020 Y-11.198 E0.0377
G1 X-21.632 Y-11.931 E0.0303
G1 X-21.219 Y-12.651 E0.0303
G1 X-20.782 Y-13.357 E0.0303
G1 X-20.433 Y-13.880 E0.0229
G1 X-19.838 Y-14.723 E0.0377
G1 X-19.332 Y-15.380 E0.0303
G1 X-18.805 Y-16.021 E0.0303
G1 X-18.389 Y-16.493 E0.0230
G1 X-17.686 Y-17.248 E0.0377
G1 X-17.097 Y-17.832 E0.0303
G1 X-16.488 Y-18.397 E0.0303
G1 X-15.861 Y-18.940 E0.0303
G1 X-15.216 Y-19.462 E0.0303
G1 X-14.714 Y-19.841 E0.0229
G1 X-13.874 Y-20.441 E0.0377
G1 X-13.180 Y-20.895 E0.0303
G1 X-12.643 Y-21.221 E0.0229
G1 X-11.746 Y-21.733 E0.0377
G1 X-11.010 Y-22.115 E0.0303
G1 X-10.261 Y-22.473 E0.0303
G1 X-9.500 Y-22.805 E0.0303
G1 X-8.729 Y-23.111 E0.0303
G1 X-7.948 Y-23.392 E0.0303
G1 X-7.157 Y-23.645 E0.0303
G1 X-6.359 Y-23.873 E0.0303
G1 X-5.749 Y-24.024 E0.0229
G1 X-4.741 Y-24.246 E0.0377
G1 X-3.924 Y-24.392 E0.0303
G1 X-3.103 Y-24.510 E0.0303
G1 X-2.278 Y-24.600 E0.0303
G1 X-1.450 Y-24.663 E0.0303
G1 X-0.621 Y-24.698 E0.0303
G1 X0.209 Y-24.705 E0.0303
G1 X0.409 Y-24.700 E-0.3422 F1403
G1 E-4.3578 F2400
; feature solid layer
G1 X14.419 Y-19.183 F30000
G1 E4.7000 F2400
G1 X19.194 Y-14.408 E0.2464 F1485
G1 X19.514 Y-13.977 E0.0196
G1 X19.972 Y-13.314 E0.0294
G1 X20.408 Y-12.635 E0.0294
G1 X20.502 Y-12.477 E0.0067
G1 X12.472 Y-20.507 E0.4144
G1 X12.465 Y-20.512 E0.0003
G1 X11.769 Y-20.919 E0.0294
G1 X11.059 Y-21.303 E0.0294
G1 X11.050 Y-21.307 E0.0004
G1 X21.303 Y-11.054 E0.5292
G1 X21.576 Y-10.517 E0.0220
G1 X21.833 Y-9.968 E0.0221
G1 X21.883 Y-9.852 E0.0046
G1 X9.858 Y-21.877 E0.6206
G1 X9.420 Y-22.073 E0.0175
G1 X8.860 Y-22.307 E0.0222
G1 X8.773 Y-22.340 E0.0034
G1 X22.338 Y-8.774 E0.7001
G1 X22.525 Y-8.293 E0.0188
G1 X22.701 Y-7.790 E0.0195
G1 X7.792 Y-22.698 E0.7695
G1 X7.341 Y-22.852 E0.0174
G1 X6.876 Y-22.993 E0.0178
G1 X22.997 Y-6.871 E0.8320
G1 X23.031 Y-6.762 E0.0042
G1 X23.239 Y-6.007 E0.0286
G1 X6.012 Y-23.234 E0.8891
G1 X5.791 Y-23.293 E0.0084
G1 X5.193 Y-23.431 E0.0224
G1 X23.435 Y-5.188 E0.9415
G1 X23.555 Y-4.606 E0.0217
G1 X23.589 Y-4.413 E0.0071
G1 X4.411 Y-23.590 E0.9898
G1 X4.213 Y-23.629 E0.0074
G1 X3.661 Y-23.718 E0.0204
G1 X23.722 Y-3.657 E1.0353
G1 X23.730 Y-3.612 E0.0017
G1 X23.821 Y-2.936 E0.0249
G1 X2.939 Y-23.818 E1.0777
G1 X2.617 Y-23.858 E0.0118
G1 X2.241 Y-23.893 E0.0138
G1 X23.896 Y-2.239 E1.1176
G1 X23.919 Y-2.014 E0.0083
G1 X23.949 Y-1.564 E0.0165
G1 X1.565 Y-23.947 E1.1553
G1 X1.010 Y-23.980 E0.0203
G1 X0.907 Y-23.983 E0.0037
G1 X23.983 Y-0.907 E1.1909
G1 X24.000 Y-0.403 E0.0184
G1 X24.000 Y-0.268 E0.0049
G1 X0.269 Y-23.999 E1.2248
G1 X0.203 Y-24.001 E0.0024
G1 X-0.350 Y-23.996 E0.0202
G1 X24.000 Y0.354 E1.2567
G1 X24.000 Y0.403 E0.0018
G1 X23.981 Y0.958 E0.0202
G1 X-0.956 Y-23.979 E1.2870
G1 X-1.409 Y-23.960 E0.0166
G1 X-1.548 Y-23.949 E0.0051
G1 X23.947 Y1.546 E1.3158
G1 X23.918 Y2.017 E0.0172
G1 X23.907 Y2.128 E0.0041
G1 X-2.127 Y-23.905 E1.3436
G1 X-2.213 Y-23.899 E0.0031
G1 X-2.690 Y-23.847 E0.0175
G1 X23.850 Y2.693 E1.3698
G1 X23.837 Y2.816 E0.0045
G1 X23.779 Y3.245 E0.0158
G1 X-3.244 Y-23.778 E1.3947
G1 X-3.788 Y-23.700 E0.0201
G1 X23.696 Y3.784 E1.4185
G1 X23.609 Y4.319 E0.0198
G1 X-4.317 Y-23.606 E1.4413
G1 X-4.604 Y-23.555 E0.0106
G1 X-4.836 Y-23.504 E0.0087
G1 X23.507 Y4.839 E1.4628
G1 X23.433 Y5.200 E0.0134
G1 X23.397 Y5.351 E0.0057
G1 X-5.347 Y-23.392 E1.4835
G1 X-5.588 Y-23.339 E0.0090
G1 X-5.850 Y-23.274 E0.0099
G1 X23.275 Y5.852 E1.5032
G1 X23.143 Y6.342 E0.0185
G1 X-6.344 Y-23.145 E1.5219
G1 X-6.828 Y-23.007 E0.0184
G1 X23.009 Y6.831 E1.5400
G1 X22.861 Y7.305 E0.0181
G1 X-7.303 Y-22.859 E1.5568
G1 X-7.721 Y-22.725 E0.0160
G1 X-7.772 Y-22.707 E0.0020
G1 X22.707 Y7.773 E1.5731
G1 X22.591 Y8.105 E0.0128
G1 X22.543 Y8.231 E0.0049
G1 X-8.230 Y-22.542 E1.5882
G1 X-8.480 Y-22.453 E0.0097
G1 X-8.683 Y-22.372 E0.0079
G1 X22.371 Y8.682 E1.6027
G1 X22.232 Y9.048 E0.0143
G1 X22.197 Y9.130 E0.0033
G1 X-9.128 Y-22.195 E1.6167
G1 X-9.230 Y-22.155 E0.0040
G1 X-9.564 Y-22.009 E0.0133
G1 X22.011 Y9.566 E1.6296
G1 X21.917 Y9.787 E0.0088
G1 X21.819 Y9.996 E0.0084
G1 X-9.996 Y-21.819 E1.6420
G1 X-10.418 Y-21.618 E0.0170
G1 X21.621 Y10.421 E1.6536
G1 X21.576 Y10.517 E0.0039
G1 X21.414 Y10.836 E0.0130
G1 X-10.835 Y-21.413 E1.6644
G1 X-11.245 Y-21.201 E0.0168
G1 X21.204 Y11.248 E1.6747
G1 X20.983 Y11.649 E0.0167
G1 X-11.646 Y-20.980 E1.6840
G1 X-12.042 Y-20.754 E0.0166
G1 X20.759 Y12.047 E1.6929
G1 X20.526 Y12.437 E0.0166
G1 X-12.435 Y-20.524 E1.7012
G1 X-12.804 Y-20.299 E0.0158
G1 X-12.821 Y-20.288 E0.0007
G1 X20.288 Y12.821 E1.7088
G1 X20.045 Y13.200 E0.0164
G1 X-13.197 Y-20.042 E1.7157
G1 X-13.477 Y-19.859 E0.0122
G1 X-13.570 Y-19.793 E0.0042
G1 X19.794 Y13.571 E1.7220
G1 X19.540 Y13.939 E0.0163
G1 X-13.933 Y-19.534 E1.7276
G1 X-14.296 Y-19.274 E0.0163
G1 X19.276 Y14.298 E1.7327
G1 X19.152 Y14.464 E0.0076
G1 X19.006 Y14.650 E0.0086
G1 X-14.651 Y-19.007 E1.7371
G1 X-14.782 Y-18.908 E0.0060
G1 X-14.999 Y-18.732 E0.0102
G1 X18.732 Y14.999 E1.7409
G1 X18.529 Y15.258 E0.0120
G1 X18.455 Y15.344 E0.0041
G1 X-15.343 Y-18.454 E1.7444
G1 X-15.409 Y-18.401 E0.0031
G1 X-15.678 Y-18.167 E0.0130
G1 X18.169 Y15.680 E1.7469
G1 X18.008 Y15.869 E0.0091
G1 X17.878 Y16.012 E0.0070
